public/img/overview/icons/color/car.svg

<?xml version="1.0" encoding="UTF-8"?>
<svg width="58px" height="48px" viewBox="0 0 58 48" version="1.1" xmlns="http://www.w3.org/2000/svg" xmlns:xlink="http://www.w3.org/1999/xlink">
    <!-- Generator: Sketch 55.1 (78136) - https://sketchapp.com -->
    <title>colornoun_Truck_611450 Copy 3</title>
    <desc>Created with Sketch.</desc>
    <defs>
        <radialGradient cx="80.6121395%" cy="26.4779362%" fx="80.6121395%" fy="26.4779362%" r="116.887345%" gradientTransform="translate(0.806121,0.264779),scale(0.827586,1.000000),rotate(141.023665),translate(-0.806121,-0.264779)" id="radialGradient-1">
            <stop stop-color="#82615F" offset="0%"></stop>
            <stop stop-color="#9F776F" offset="100%"></stop>
        </radialGradient>
        <path d="M54.311625,10.15325 L56.938375,15.3491 C57.522625,16.5053 58,18.5075 58,19.8 L58,33.9 L58,40.95 C58,42.2472 56.938375,43.3 55.625,43.3 L53.25,43.3 C53.25,39.40605 50.058,36.25 46.125,36.25 C42.192,36.25 39,39.40605 39,43.3 L22.375,43.3 C22.375,39.40605 19.183,36.25 15.25,36.25 C11.317,36.25 8.125,39.40605 8.125,43.3 L3.375,43.3 C2.061625,43.3 1,42.2472 1,40.95 L1,33.9 C1,32.6028 2.061625,31.55 3.375,31.55 L36.625,31.55 L36.625,10.4 C36.625,9.1075 37.69375,8.05 39,8.05 L50.875,8.05 C52.18125,8.05 53.727375,8.9947 54.311625,10.15325 Z M53.25,24.5 L53.25,19.8 C53.25,19.2313 52.946,17.9576 52.6895,17.45 L50.3145,12.75 L41.375,12.75 L41.375,24.5 L53.25,24.5 Z M0,25.85 L0,2.35 C0,1.0528 1.061625,0 2.375,0 L30.875,0 C32.188375,0 33.25,1.0528 33.25,2.35 L33.25,28.2 L2.375,28.2 C1.061625,28.2 0,27.1472 0,25.85 Z M15.25,48 C12.6266474,48 10.5,45.8957383 10.5,43.3 C10.5,40.7042617 12.6266474,38.6 15.25,38.6 C17.8733526,38.6 20,40.7042617 20,43.3 C20,45.8957383 17.8733526,48 15.25,48 Z M46.125,48 C43.5016474,48 41.375,45.8957383 41.375,43.3 C41.375,40.7042617 43.5016474,38.6 46.125,38.6 C48.7483526,38.6 50.875,40.7042617 50.875,43.3 C50.875,45.8957383 48.7483526,48 46.125,48 Z" id="path-2"></path>
    </defs>
    <g id="Frontend" stroke="none" stroke-width="1" fill="none" fill-rule="evenodd">
        <g id="noun_Truck_611450-Copy-3">
            <g id="Group">
                <mask id="mask-3" fill="white">
                    <use xlink:href="#path-2"></use>
                </mask>
                <use id="Mask" fill="url(#radialGradient-1)" fill-rule="nonzero" xlink:href="#path-2"></use>
            </g>
        </g>
    </g>
</svg>

<svg width="58" height="48" xmlns="http://www.w3.org/2000/svg" xmlns:xlink="http://www.w3.org/1999/xlink"><defs><radialGradient cx="80.612%" cy="26.478%" fx="80.612%" fy="26.478%" r="116.887%" gradientTransform="matrix(-.64337 .629 -.52055 -.7774 1.463 -.036)" id="a"><stop stop-color="#82615F" offset="0%"/><stop stop-color="#9F776F" offset="100%"/></radialGradient><path d="M54.312 10.153l2.626 5.196C57.523 16.505 58 18.508 58 19.8v21.15c0 1.297-1.062 2.35-2.375 2.35H53.25c0-3.894-3.192-7.05-7.125-7.05S39 39.406 39 43.3H22.375c0-3.894-3.192-7.05-7.125-7.05s-7.125 3.156-7.125 7.05h-4.75C2.062 43.3 1 42.247 1 40.95V33.9c0-1.297 1.062-2.35 2.375-2.35h33.25V10.4c0-1.293 1.069-2.35 2.375-2.35h11.875c1.306 0 2.852.945 3.437 2.103zM53.25 24.5v-4.7c0-.569-.304-1.842-.56-2.35l-2.375-4.7h-8.94V24.5H53.25zM0 25.85V2.35C0 1.053 1.062 0 2.375 0h28.5c1.313 0 2.375 1.053 2.375 2.35V28.2H2.375C1.062 28.2 0 27.147 0 25.85zM15.25 48c-2.623 0-4.75-2.104-4.75-4.7s2.127-4.7 4.75-4.7S20 40.704 20 43.3 17.873 48 15.25 48zm30.875 0c-2.623 0-4.75-2.104-4.75-4.7s2.127-4.7 4.75-4.7 4.75 2.104 4.75 4.7-2.127 4.7-4.75 4.7z" id="b"/></defs><use fill="url(#a)" xlink:href="#b"/></svg>
